X: 043
T: Miss Cuming's Reel
C: attr. John French (1753-1803)
R: reel
B: "John French Collection", John French ed. p.4 #3
S: http://www.heallan.com/french.asp
Z: 2012 John Chambers <jc:trillian.mit.edu>
M: C
L: 1/8
K: Bb
D |\
B,2(DF) BFDF | B/B/Bfd TcBcd | B,2(DF) BdFD |1ECFD B,/B,/B,B, :|2 GecA B/B/B Bd |
f2(bf) gfbd | Bfed TcBcd | f/f/f (bf) gdfF | GecA B/B/B (Bd) |
f2(bf) gfbd | Bfed edcB | GBFB DBFD | ECFD B,/B,/B,B, |]

%%sep 2 1 500
%%sep 1 1 500

